X:1
T:5 Little Love Songs
T:Just a multitude of curls
T:To Berrick von Norden 
T:5 Little Love Songs
T:Liza Lehmann
T:3. Just a multitude of curls
T:Cora Randall Fabbri
T:Creative Commons copyright waiver (CC0 1.0 Universal)
T:Creative Commons copyright waiver (CC0 1.0 Universal)
C:Liza Lehmann
Z:Cora Randall Fabbri
Z:Creative Commons copyright waiver (CC0 1.0 Universal)
%%score ( 1 2 )
L:1/8
M:2/2
K:A
V:1 treble nm="Voice"
V:2 treble 
V:1
 z8 | z8 |!mf! e2 c2 A2 F2 | G3 A"^poco ten." !>!!breath!B2 A B | c2 A2 c d3 | B6 z2 | %6
w: ||Just a mul- ti-|tude of curls Weigh- ing|down a lit- tle|head;|
 e2 c2 A2 z2 | z8 | z8 | z8 | F3 =G F2 z F | z8 | z8 | z8 |!pp!{/e-} !>!e2 c2 A2 F2 | z8 | z8 | %17
w: Two wide eyes,||||Small red mouth and||||Just a sau- cy|||
 B6 z2 | z8 | z8 | A3 B (c2 a2) | g3 B !breath!e4 | z8 | z8 |!ppp!"^a tempo" d2 z2 B2 z2 | %25
w: kiss;|||Just a flow- er\-|fresh and blue\-|||Just for|
 !>!A2 z2 z4 | z8 | z8 |] %28
w: this!|||
V:2
 x8 | x8 | x8 | x8 | x8 | x8 | x8 | x8 | x8 | x8 | x8 | x8 | x8 | x8 | x8 | x8 | x8 | x8 | x8 | %19
 x8 | x4 c2 A2 | B3 B x4 | x8 | x8 | x8 | x8 | x8 | x8 |] %28

